svg/google-forms.svg

<svg xmlns="http://www.w3.org/2000/svg" xmlns:xlink="http://www.w3.org/1999/xlink" width="48" height="66" version="1.1" viewBox="0 0 48 66"><title>Forms-icon</title><desc>Created with Sketch.</desc><defs><path id="path-1" d="M29.5833333,0 L4.4375,0 C1.996875,0 0,1.996875 0,4.4375 L0,60.6458333 C0,63.0864583 1.996875,65.0833333 4.4375,65.0833333 L42.8958333,65.0833333 C45.3364583,65.0833333 47.3333333,63.0864583 47.3333333,60.6458333 L47.3333333,17.75 L29.5833333,0 Z"/><path id="path-3" d="M29.5833333,0 L4.4375,0 C1.996875,0 0,1.996875 0,4.4375 L0,60.6458333 C0,63.0864583 1.996875,65.0833333 4.4375,65.0833333 L42.8958333,65.0833333 C45.3364583,65.0833333 47.3333333,63.0864583 47.3333333,60.6458333 L47.3333333,17.75 L29.5833333,0 Z"/><path id="path-5" d="M29.5833333,0 L4.4375,0 C1.996875,0 0,1.996875 0,4.4375 L0,60.6458333 C0,63.0864583 1.996875,65.0833333 4.4375,65.0833333 L42.8958333,65.0833333 C45.3364583,65.0833333 47.3333333,63.0864583 47.3333333,60.6458333 L47.3333333,17.75 L29.5833333,0 Z"/><linearGradient id="linearGradient-7" x1="50.005%" x2="50.005%" y1="8.586%" y2="100.014%"><stop offset="0%" stop-color="#311B92" stop-opacity=".2"/><stop offset="100%" stop-color="#311B92" stop-opacity=".02"/></linearGradient><path id="path-8" d="M29.5833333,0 L4.4375,0 C1.996875,0 0,1.996875 0,4.4375 L0,60.6458333 C0,63.0864583 1.996875,65.0833333 4.4375,65.0833333 L42.8958333,65.0833333 C45.3364583,65.0833333 47.3333333,63.0864583 47.3333333,60.6458333 L47.3333333,17.75 L29.5833333,0 Z"/><path id="path-10" d="M29.5833333,0 L4.4375,0 C1.996875,0 0,1.996875 0,4.4375 L0,60.6458333 C0,63.0864583 1.996875,65.0833333 4.4375,65.0833333 L42.8958333,65.0833333 C45.3364583,65.0833333 47.3333333,63.0864583 47.3333333,60.6458333 L47.3333333,17.75 L29.5833333,0 Z"/><path id="path-12" d="M29.5833333,0 L4.4375,0 C1.996875,0 0,1.996875 0,4.4375 L0,60.6458333 C0,63.0864583 1.996875,65.0833333 4.4375,65.0833333 L42.8958333,65.0833333 C45.3364583,65.0833333 47.3333333,63.0864583 47.3333333,60.6458333 L47.3333333,17.75 L29.5833333,0 Z"/><path id="path-14" d="M29.5833333,0 L4.4375,0 C1.996875,0 0,1.996875 0,4.4375 L0,60.6458333 C0,63.0864583 1.996875,65.0833333 4.4375,65.0833333 L42.8958333,65.0833333 C45.3364583,65.0833333 47.3333333,63.0864583 47.3333333,60.6458333 L47.3333333,17.75 L29.5833333,0 Z"/><radialGradient id="radialGradient-16" cx="3.168%" cy="2.717%" r="161.249%" fx="3.168%" fy="2.717%" gradientTransform="translate(0.031680,0.027174),scale(1.000000,0.727273),translate(-0.031680,-0.027174)"><stop offset="0%" stop-color="#FFF" stop-opacity=".1"/><stop offset="100%" stop-color="#FFF" stop-opacity="0"/></radialGradient></defs><g id="Page-1" fill="none" fill-rule="evenodd" stroke="none" stroke-width="1"><g id="Consumer-Apps-Forms-Large-VD-R8" transform="translate(-449.000000, -452.000000)"><g id="Hero" transform="translate(0.000000, 63.000000)"><g id="Personal" transform="translate(277.000000, 299.000000)"><g id="Forms-icon" transform="translate(172.000000, 90.000000)"><g id="Group"><g id="Clipped"><mask id="mask-2" fill="#fff"><use xlink:href="#path-1"/></mask><path id="Path" fill="#673AB7" fill-rule="nonzero" d="M29.5833333,0 L4.4375,0 C1.996875,0 0,1.996875 0,4.4375 L0,60.6458333 C0,63.0864583 1.996875,65.0833333 4.4375,65.0833333 L42.8958333,65.0833333 C45.3364583,65.0833333 47.3333333,63.0864583 47.3333333,60.6458333 L47.3333333,17.75 L36.9791667,10.3541667 L29.5833333,0 Z" mask="url(#mask-2)"/></g><g id="Clipped"><mask id="mask-4" fill="#fff"><use xlink:href="#path-3"/></mask><path id="Shape" fill="#F1F1F1" fill-rule="nonzero" d="M19.2291667,50.2916667 L35.5,50.2916667 L35.5,47.3333333 L19.2291667,47.3333333 L19.2291667,50.2916667 Z M19.2291667,32.5416667 L19.2291667,35.5 L35.5,35.5 L35.5,32.5416667 L19.2291667,32.5416667 Z M15.53125,34.0208333 C15.53125,35.2448438 14.5365104,36.2395833 13.3125,36.2395833 C12.0884896,36.2395833 11.09375,35.2448438 11.09375,34.0208333 C11.09375,32.7968229 12.0884896,31.8020833 13.3125,31.8020833 C14.5365104,31.8020833 15.53125,32.7968229 15.53125,34.0208333 Z M15.53125,41.4166667 C15.53125,42.6406771 14.5365104,43.6354167 13.3125,43.6354167 C12.0884896,43.6354167 11.09375,42.6406771 11.09375,41.4166667 C11.09375,40.1926563 12.0884896,39.1979167 13.3125,39.1979167 C14.5365104,39.1979167 15.53125,40.1926563 15.53125,41.4166667 Z M15.53125,48.8125 C15.53125,50.0365104 14.5365104,51.03125 13.3125,51.03125 C12.0884896,51.03125 11.09375,50.0365104 11.09375,48.8125 C11.09375,47.5884896 12.0884896,46.59375 13.3125,46.59375 C14.5365104,46.59375 15.53125,47.5884896 15.53125,48.8125 Z M19.2291667,42.8958333 L35.5,42.8958333 L35.5,39.9375 L19.2291667,39.9375 L19.2291667,42.8958333 Z" mask="url(#mask-4)"/></g><g id="Clipped"><mask id="mask-6" fill="#fff"><use xlink:href="#path-5"/></mask><polygon id="Path" fill="url(#linearGradient-7)" fill-rule="nonzero" points="30.881 16.452 47.333 32.9 47.333 17.75" mask="url(#mask-6)"/></g><g id="Clipped"><mask id="mask-9" fill="#fff"><use xlink:href="#path-8"/></mask><g id="Group" mask="url(#mask-9)"><g transform="translate(26.625000, -2.958333)"><path id="Path" fill="#B39DDB" fill-rule="nonzero" d="M2.95833333,2.95833333 L2.95833333,16.2708333 C2.95833333,18.7225521 4.94411458,20.7083333 7.39583333,20.7083333 L20.7083333,20.7083333 L2.95833333,2.95833333 Z"/></g></g></g><g id="Clipped"><mask id="mask-11" fill="#fff"><use xlink:href="#path-10"/></mask><path id="Path" fill="#FFF" fill-opacity=".2" fill-rule="nonzero" d="M4.4375,0 C1.996875,0 0,1.996875 0,4.4375 L0,4.80729167 C0,2.36666667 1.996875,0.369791667 4.4375,0.369791667 L29.5833333,0.369791667 L29.5833333,0 L4.4375,0 Z" mask="url(#mask-11)"/></g><g id="Clipped"><mask id="mask-13" fill="#fff"><use xlink:href="#path-12"/></mask><path id="Path" fill="#311B92" fill-opacity=".2" fill-rule="nonzero" d="M42.8958333,64.7135417 L4.4375,64.7135417 C1.996875,64.7135417 0,62.7166667 0,60.2760417 L0,60.6458333 C0,63.0864583 1.996875,65.0833333 4.4375,65.0833333 L42.8958333,65.0833333 C45.3364583,65.0833333 47.3333333,63.0864583 47.3333333,60.6458333 L47.3333333,60.2760417 C47.3333333,62.7166667 45.3364583,64.7135417 42.8958333,64.7135417 Z" mask="url(#mask-13)"/></g><g id="Clipped"><mask id="mask-15" fill="#fff"><use xlink:href="#path-14"/></mask><path id="Path" fill="#311B92" fill-opacity=".1" fill-rule="nonzero" d="M34.0208333,17.75 C31.5691146,17.75 29.5833333,15.7642187 29.5833333,13.3125 L29.5833333,13.6822917 C29.5833333,16.1340104 31.5691146,18.1197917 34.0208333,18.1197917 L47.3333333,18.1197917 L47.3333333,17.75 L34.0208333,17.75 Z" mask="url(#mask-15)"/></g></g><path id="Path" fill="url(#radialGradient-16)" fill-rule="nonzero" d="M29.5833333,0 L4.4375,0 C1.996875,0 0,1.996875 0,4.4375 L0,60.6458333 C0,63.0864583 1.996875,65.0833333 4.4375,65.0833333 L42.8958333,65.0833333 C45.3364583,65.0833333 47.3333333,63.0864583 47.3333333,60.6458333 L47.3333333,17.75 L29.5833333,0 Z"/></g></g></g></g></g></svg>

<svg xmlns="http://www.w3.org/2000/svg" xmlns:xlink="http://www.w3.org/1999/xlink" width="48" height="66"><defs><path id="a" d="M29.583 0H4.438A4.45 4.45 0 0 0 0 4.438v56.208a4.45 4.45 0 0 0 4.438 4.437h38.458a4.45 4.45 0 0 0 4.437-4.437V17.75z"/><path id="c" d="M29.583 0H4.438A4.45 4.45 0 0 0 0 4.438v56.208a4.45 4.45 0 0 0 4.438 4.437h38.458a4.45 4.45 0 0 0 4.437-4.437V17.75z"/><path id="e" d="M29.583 0H4.438A4.45 4.45 0 0 0 0 4.438v56.208a4.45 4.45 0 0 0 4.438 4.437h38.458a4.45 4.45 0 0 0 4.437-4.437V17.75z"/><path id="h" d="M29.583 0H4.438A4.45 4.45 0 0 0 0 4.438v56.208a4.45 4.45 0 0 0 4.438 4.437h38.458a4.45 4.45 0 0 0 4.437-4.437V17.75z"/><path id="j" d="M29.583 0H4.438A4.45 4.45 0 0 0 0 4.438v56.208a4.45 4.45 0 0 0 4.438 4.437h38.458a4.45 4.45 0 0 0 4.437-4.437V17.75z"/><path id="l" d="M29.583 0H4.438A4.45 4.45 0 0 0 0 4.438v56.208a4.45 4.45 0 0 0 4.438 4.437h38.458a4.45 4.45 0 0 0 4.437-4.437V17.75z"/><path id="n" d="M29.583 0H4.438A4.45 4.45 0 0 0 0 4.438v56.208a4.45 4.45 0 0 0 4.438 4.437h38.458a4.45 4.45 0 0 0 4.437-4.437V17.75z"/><radialGradient id="p" cx="3.168%" cy="2.717%" r="161.249%" fx="3.168%" fy="2.717%" gradientTransform="matrix(1 0 0 .72727 0 .007)"><stop offset="0%" stop-color="#FFF" stop-opacity=".1"/><stop offset="100%" stop-color="#FFF" stop-opacity="0"/></radialGradient><linearGradient id="f" x1="50.005%" x2="50.005%" y1="8.586%" y2="100.014%"><stop offset="0%" stop-color="#311B92" stop-opacity=".2"/><stop offset="100%" stop-color="#311B92" stop-opacity=".02"/></linearGradient></defs><g fill="none" fill-rule="evenodd"><g><mask id="b" fill="#fff"><use xlink:href="#a"/></mask><path fill="#673AB7" fill-rule="nonzero" d="M29.583 0H4.438A4.45 4.45 0 0 0 0 4.438v56.208a4.45 4.45 0 0 0 4.438 4.437h38.458a4.45 4.45 0 0 0 4.437-4.437V17.75L36.98 10.354z" mask="url(#b)"/></g><g><mask id="d" fill="#fff"><use xlink:href="#c"/></mask><path fill="#F1F1F1" fill-rule="nonzero" d="M19.23 50.292H35.5v-2.959H19.23zm0-17.75V35.5H35.5v-2.958zM15.53 34.02a2.22 2.22 0 0 1-2.219 2.219 2.22 2.22 0 0 1-2.218-2.22 2.22 2.22 0 0 1 2.219-2.218 2.22 2.22 0 0 1 2.218 2.219m0 7.396a2.22 2.22 0 0 1-2.219 2.218 2.22 2.22 0 0 1-2.218-2.218 2.22 2.22 0 0 1 2.219-2.22 2.22 2.22 0 0 1 2.218 2.22m0 7.395a2.22 2.22 0 0 1-2.219 2.22 2.22 2.22 0 0 1-2.218-2.22 2.22 2.22 0 0 1 2.219-2.218 2.22 2.22 0 0 1 2.218 2.218m3.698-5.916H35.5v-2.959H19.23z" mask="url(#d)"/></g><g><mask id="g" fill="#fff"><use xlink:href="#e"/></mask><path fill="url(#f)" fill-rule="nonzero" d="M30.881 16.452 47.333 32.9V17.75z" mask="url(#g)"/></g><g><mask id="i" fill="#fff"><use xlink:href="#h"/></mask><g mask="url(#i)"><path fill="#B39DDB" fill-rule="nonzero" d="M29.583 0v13.313a4.436 4.436 0 0 0 4.438 4.437h13.312z"/></g></g><g><mask id="k" fill="#fff"><use xlink:href="#j"/></mask><path fill="#FFF" fill-opacity=".2" fill-rule="nonzero" d="M4.438 0A4.45 4.45 0 0 0 0 4.438v.37A4.45 4.45 0 0 1 4.438.37h25.145V0z" mask="url(#k)"/></g><g><mask id="m" fill="#fff"><use xlink:href="#l"/></mask><path fill="#311B92" fill-opacity=".2" fill-rule="nonzero" d="M42.896 64.714H4.438A4.45 4.45 0 0 1 0 60.276v.37a4.45 4.45 0 0 0 4.438 4.437h38.458a4.45 4.45 0 0 0 4.437-4.437v-.37a4.45 4.45 0 0 1-4.437 4.438" mask="url(#m)"/></g><g><mask id="o" fill="#fff"><use xlink:href="#n"/></mask><path fill="#311B92" fill-opacity=".1" fill-rule="nonzero" d="M34.02 17.75a4.436 4.436 0 0 1-4.437-4.437v.37a4.436 4.436 0 0 0 4.438 4.437h13.312v-.37z" mask="url(#o)"/></g><path fill="url(#p)" fill-rule="nonzero" d="M29.583 0H4.438A4.45 4.45 0 0 0 0 4.438v56.208a4.45 4.45 0 0 0 4.438 4.437h38.458a4.45 4.45 0 0 0 4.437-4.437V17.75z"/></g></svg>
